src/xmb/monochrome/Source Code - Nintendo - Super Nintendo Entertainment System-content.svg

<svg xmlns="http://www.w3.org/2000/svg" xml:space="preserve" id="svg2" x="0" y="0" version="1.1" viewBox="0 0 64 64"><style>.st0{fill:#fff}</style><path id="Super_NES_1_" d="M57.5 17.5c.28 0 .5-.22.5-.5v-2c0-1 0-1-1-1h-7c-.55 0-1 .45-1 1 0-.55-.45-1-1-1H16c-.55 0-1 .45-1 1 0-.55-.45-1-1-1H7c-1 0-1 0-1 1v2c0 .28.22.5.5.5s.5.22.5.5-.22.5-.5.5-.5.22-.5.5.22.5.5.5.5.22.5.5-.22.5-.5.5-.5.22-.5.5.22.5.5.5.5.22.5.5-.22.5-.5.5-.5.22-.5.5.22.5.5.5.5.22.5.5-.22.5-.5.5-.5.22-.5.5v24c0 .47 0 1 1 1h7c.55 0 1-.45 1-1 0 .55.45 1 1 1h32c.55 0 1-.45 1-1 0 .55.45 1 1 1h7c1 0 1 0 1-1V25c0-.28-.22-.5-.5-.5s-.5-.22-.5-.5.22-.5.5-.5.5-.22.5-.5-.22-.5-.5-.5-.5-.22-.5-.5.22-.5.5-.5.5-.22.5-.5-.22-.5-.5-.5-.5-.22-.5-.5.22-.5.5-.5.5-.22.5-.5-.22-.5-.5-.5-.5-.22-.5-.5.22-.5.5-.5M10 48c-.55 0-1-.45-1-1s.45-1 1-1 1 .45 1 1-.45 1-1 1m35-10H19c-.69 0-1-.3-1-1 0-.69.31-1 1-1h26c.69 0 1 .31 1 1 0 .7-.31 1-1 1m6-7H13c-1.39 0-2-.61-2-2V18c0-1.39.61-2 2-2h38c1.39 0 2 .61 2 2v11c0 1.39-.61 2-2 2m3 17c-.55 0-1-.45-1-1s.45-1 1-1 1 .45 1 1-.45 1-1 1" class="st0"/><path d="M50 18H14c-.55 0-1 .45-1 1v9c0 .55.45 1 1 1h36c.55 0 1-.45 1-1v-9c0-.55-.45-1-1-1m-20.86 3.57-4.23 1.99 4.23 1.75v1.14l-5.64-2.49v-.7l5.64-2.82zm1.92 6.15h-1.28l3.15-8.45h1.27zm9.44-3.75-5.64 2.49v-1.14l4.23-1.75-4.23-1.99v-1.12l5.64 2.82z" class="st0"/></svg>

<?xml version="1.0" encoding="utf-8"?>
<!-- Generator: Adobe Illustrator 26.3.1, SVG Export Plug-In . SVG Version: 6.00 Build 0)  -->
<svg version="1.1"
	 id="svg2" xmlns:inkscape="http://www.inkscape.org/namespaces/inkscape" xmlns:cc="http://creativecommons.org/ns#" xmlns:sodipodi="http://sodipodi.sourceforge.net/DTD/sodipodi-0.dtd" xmlns:dc="http://purl.org/dc/elements/1.1/" xmlns:svg="http://www.w3.org/2000/svg" xmlns:rdf="http://www.w3.org/1999/02/22-rdf-syntax-ns#"
	 xmlns="http://www.w3.org/2000/svg" xmlns:xlink="http://www.w3.org/1999/xlink" x="0px" y="0px" viewBox="0 0 64 64"
	 style="enable-background:new 0 0 64 64;" xml:space="preserve">
<style type="text/css">
	.st0{fill:#FFFFFF;}
</style>
<path id="Super_NES_1_" class="st0" d="M57.5,17.5c0.28,0,0.5-0.22,0.5-0.5v-2c0-1,0-1-1-1h-7c-0.55,0-1,0.45-1,1c0-0.55-0.45-1-1-1
	H16c-0.55,0-1,0.45-1,1c0-0.55-0.45-1-1-1H7c-1,0-1,0-1,1v2c0,0.28,0.22,0.5,0.5,0.5S7,17.72,7,18s-0.22,0.5-0.5,0.5S6,18.72,6,19
	s0.22,0.5,0.5,0.5S7,19.72,7,20s-0.22,0.5-0.5,0.5S6,20.72,6,21s0.22,0.5,0.5,0.5S7,21.72,7,22s-0.22,0.5-0.5,0.5S6,22.72,6,23
	s0.22,0.5,0.5,0.5S7,23.72,7,24s-0.22,0.5-0.5,0.5S6,24.72,6,25v24c0,0.47,0,1,1,1h7c0.55,0,1-0.45,1-1c0,0.55,0.45,1,1,1h32
	c0.55,0,1-0.45,1-1c0,0.55,0.45,1,1,1h7c1,0,1,0,1-1V25c0-0.28-0.22-0.5-0.5-0.5S57,24.28,57,24s0.22-0.5,0.5-0.5S58,23.28,58,23
	s-0.22-0.5-0.5-0.5S57,22.28,57,22s0.22-0.5,0.5-0.5S58,21.28,58,21s-0.22-0.5-0.5-0.5S57,20.28,57,20s0.22-0.5,0.5-0.5
	S58,19.28,58,19s-0.22-0.5-0.5-0.5S57,18.28,57,18S57.22,17.5,57.5,17.5z M10,48c-0.55,0-1-0.45-1-1s0.45-1,1-1s1,0.45,1,1
	S10.55,48,10,48z M45,38H19c-0.69,0-1-0.3-1-1c0-0.69,0.31-1,1-1h26c0.69,0,1,0.31,1,1C46,37.7,45.69,38,45,38z M51,31H13
	c-1.39,0-2-0.61-2-2V18c0-1.39,0.61-2,2-2h38c1.39,0,2,0.61,2,2v11C53,30.39,52.39,31,51,31z M54,48c-0.55,0-1-0.45-1-1s0.45-1,1-1
	s1,0.45,1,1S54.55,48,54,48z"/>
<path class="st0" d="M50,18H14c-0.55,0-1,0.45-1,1v9c0,0.55,0.45,1,1,1h36c0.55,0,1-0.45,1-1v-9C51,18.45,50.55,18,50,18z
	 M29.14,21.57l-4.23,1.99l4.23,1.75v1.14l-5.64-2.49v-0.7l5.64-2.82V21.57z M31.06,27.72h-1.28l3.15-8.45h1.27L31.06,27.72z
	 M40.5,23.97l-5.64,2.49v-1.14l4.23-1.75l-4.23-1.99v-1.12l5.64,2.82V23.97z"/>
</svg>
